img/footer/icon/linkedIn.svg

<svg width="20" height="21" viewBox="0 0 20 21" fill="none" xmlns="http://www.w3.org/2000/svg">
<path d="M2.75 0.875C1.57639 0.875 0.625 1.82639 0.625 3C0.625 4.1736 1.57639 5.125 2.75 5.125C3.9236 5.125 4.875 4.1736 4.875 3C4.875 1.82639 3.9236 0.875 2.75 0.875Z" fill="#EEEDDE"/>
<path d="M0.75 6.875C0.680964 6.875 0.625 6.93096 0.625 7V20C0.625 20.069 0.680964 20.125 0.75 20.125H4.75C4.81904 20.125 4.875 20.069 4.875 20V7C4.875 6.93096 4.81904 6.875 4.75 6.875H0.75Z" fill="#EEEDDE"/>
<path d="M7.25 6.875C7.18096 6.875 7.125 6.93096 7.125 7V20C7.125 20.069 7.18096 20.125 7.25 20.125H11.25C11.319 20.125 11.375 20.069 11.375 20V13C11.375 12.5027 11.5725 12.0258 11.9242 11.6742C12.2758 11.3225 12.7527 11.125 13.25 11.125C13.7473 11.125 14.2242 11.3225 14.5758 11.6742C14.9275 12.0258 15.125 12.5027 15.125 13V20C15.125 20.069 15.181 20.125 15.25 20.125H19.25C19.319 20.125 19.375 20.069 19.375 20V11.3802C19.375 8.9535 17.2644 7.05499 14.8498 7.2745C14.1052 7.34219 13.369 7.52731 12.6815 7.82194L11.375 8.38186V7C11.375 6.93096 11.319 6.875 11.25 6.875H7.25Z" fill="#EEEDDE"/>
</svg>

<svg xmlns="http://www.w3.org/2000/svg" fill="none" viewBox="0 0 20 21"><path fill="#EEEDDE" d="M2.75.875a2.125 2.125 0 1 0 0 4.25 2.125 2.125 0 0 0 0-4.25zM.75 6.875A.125.125 0 0 0 .625 7v13c0 .069.056.125.125.125h4A.125.125 0 0 0 4.875 20V7a.125.125 0 0 0-.125-.125h-4zM7.25 6.875A.125.125 0 0 0 7.125 7v13c0 .069.056.125.125.125h4a.125.125 0 0 0 .125-.125v-7a1.875 1.875 0 1 1 3.75 0v7c0 .069.056.125.125.125h4a.125.125 0 0 0 .125-.125v-8.62c0-2.427-2.11-4.325-4.525-4.106a7.168 7.168 0 0 0-2.168.548l-1.307.56V7a.125.125 0 0 0-.125-.125h-4z"/></svg>
